**kern	**kern	**dynam
*part1	*part1	*part1
*staff2	*staff1	*
*I"Piano	*	*
*clefF4	*clefG2	*
*k[]	*k[]	*
=1	=1	=1
8EL	8e 8g#X 8b	.
16.G#XL	4e 4ee	sf
!	!LO:TX:b:i:t=dim.	!
32BJJk	.	.
(8dL	.	.
8c	(8eL 8ee	.
8B	8e 8g#X 8dd	.
8AJ)	8eJ) 8a 8cc	.
=	=	=
2d	2f 2a 2b	sf
4d	4f 4a 4b	.
=	=	=
!	!LO:TX:b:i:t=dim.	!
2d#X	2f#X 2a 2cc	.
4D#X	4c 4f# 4a	.
=	=	=
4E	4B 4e 4g#X	p
!	!LO:TX:b:i:t=cresc.	!
4EE 4E	4g# 4ee	.
4EE 4E	4g# 4ee	.
=	=	=
2.FFn; 2.Fn	2.a; 2.dd#X	sf
=	=	=
2EE 2E	2g#X 2ee	p
4EE 4E	4G#X 4B 4e	.
=	=	=
!	!LO:TX:b:i:t=Attacca subito	!
2EE; 2E	2G#X; 2B 2e	.
=||	=||	=||
*-	*-	*-
!!!system-decoration: {(s1,s2)}
